IMG/ICON/arrow-up-solid.svg

<svg width="384" height="512" viewBox="0 0 384 512" fill="none" xmlns="http://www.w3.org/2000/svg">
<g clip-path="url(#clip0_249_26)">
<path d="M214.601 41.4C202.101 28.9 181.801 28.9 169.301 41.4L9.30078 201.4C-3.19922 213.9 -3.19922 234.2 9.30078 246.7C21.8008 259.2 42.1008 259.2 54.6008 246.7L160.001 141.2V448C160.001 465.7 174.301 480 192.001 480C209.701 480 224.001 465.7 224.001 448V141.3L329.401 246.6C341.901 259.1 362.201 259.1 374.701 246.6C387.201 234.1 387.201 213.8 374.701 201.3L214.701 41.3L214.601 41.4Z" fill="#091729"/>
</g>
<defs>
<clipPath id="clip0_249_26">
<rect width="384" height="512" fill="white"/>
</clipPath>
</defs>
</svg>

<svg xmlns="http://www.w3.org/2000/svg" viewBox="0 0 384 512"><!--!Font Awesome Free 6.6.0 by @fontawesome - https://fontawesome.com License - https://fontawesome.com/license/free Copyright 2024 Fonticons, Inc.--><path d="M214.6 41.4c-12.5-12.5-32.8-12.5-45.3 0l-160 160c-12.5 12.5-12.5 32.8 0 45.3s32.8 12.5 45.3 0L160 141.2 160 448c0 17.7 14.3 32 32 32s32-14.3 32-32l0-306.7L329.4 246.6c12.5 12.5 32.8 12.5 45.3 0s12.5-32.8 0-45.3l-160-160z"/></svg>
